X:1
T:6 Lieder, Op.9
T:Die Mainacht
T:6. Die Mainacht
T:Fanny (Mendelssohn) Hensel
T:6 Lieder, Op.9
T:Ludwig Christoph Heinrich Hölty
T:OpenScore (CC0)
T:OpenScore (CC0)
T:OpenScore (CC0)
C:Fanny (Mendelssohn) Hensel
Z:Ludwig Christoph Heinrich Hölty
Z:
Z:OpenScore (CC0)
%%score 1 { 2 | ( 3 4 ) }
L:1/8
Q:1/4=85
M:6/4
K:Eb
V:1 treble nm="Voice"
V:2 treble nm="Piano"
V:3 bass 
V:4 bass 
V:1
"^Andante" z12 | z12 | z12 |]SS!mf! z2!mf! G2!mf! A2!mf! c3 =A B2 | e4 z2 E3 F G2 | B4 A2 F4 z2 | %6
w: |||1. Wenn der sil- ber- ne|Mond durch die Ge-|sträu- che blinkt|
w: |||2. Ü- ber- fül- let von|Laub gir- ret ein|Tau- ben- paar|
 G4 G2 G3"^cresc." F E2 |!f! D6!<(! C3 =B, C2!<)! |[M:3/4] e4 d2 ||[M:6/4] c4 z2 z2!p! =B2 c2 | %10
w: und sein schlum- mern- des|Licht ü- ber den|Ra- sen|streut: und die|
w: sein Ent- zük- ken mir|vor, a- ber ich|wen- de|mich, su- che|
 _d6- d2 (cB) (AG) | B4 A2 (_G2 F2) =E2 | (F4 AG)"^cresc." G4 (BA) | A4 (c=B) B2!f! f2 (ed) | %14
w: Nach- * ti- * gall *|flö- tet, wandl' * ich|trau- * * rig von *|Busch zu * Busch, wandl' ich *|
w: dunk- * le- * re *|Schat- ten, und * die|ein- * * sa- me *|Thrä- ne * rinnt, und die *|
 (e2 g2"^dim." e2 c2 G2 E2 | C2) D2 E2!p! B,4 (!>!AG) |!p! (F2 E2) z2 z4 z2 | z12 | z12!D.S.! |] %19
w: trau- * * * * *|* rig von Busch zu *|Busch. *|||
w: ein- * * * * *|* sa- me Thrä- ne *|rinnt. *|||
SSS z12 |] %20
w: |
w: |
V:2
"^mano sinistra"!mp!!ped! z2 G2 A2 c4 B2 | z2 c2 d2 f4 e2 | z2 b2 g2 e2 B2 G2!ped-up! |] %3
 [G,E]B,EGEB, x6 | x12 | x12 | x12 | x12 |[M:3/4] x6 ||[M:6/4] x12 | x12 | %11
 x6 [_G,_G]A,[F,F]A,[=E,=E]A, | [F,F]A,_DFF,B, [G,G]B,EGG,C | [A,A]CFA[Dc]F [D=B]FGBFG | %14
 CEGcGE CEGcGE | _GEC_G,CE F,A,B,DB,A, |[I:staff +1] G,2"^m.s."[I:staff -1] G2 A2 c4 B2 | %17
 z2 c2 d2 f4 e2 | z2 b2 g2 e2 B2 G2 |] E2 [G,B,]2{/D} [A,C]2 [G,B,]6 |] %20
V:3
 G,B,[I:staff -1]EGE[I:staff +1]B, G,B,[I:staff -1]EGE[I:staff +1]B, | %1
 G,B,[I:staff -1]EGE[I:staff +1]B, G,B,[I:staff -1]EGE[I:staff +1]B, | %2
!<(! G,B,[I:staff -1]EGE[I:staff +1]B, G,B,[I:staff -1]EGE!<)![I:staff +1]B, |] [E,,E,]6 [D,,D,]6 | %4
 E,G,[I:staff -1]CEC[I:staff +1]G, E,G,[I:staff -1]CEC[I:staff +1]G, | %5
 F,A,[I:staff -1]CEC[I:staff +1]A, F,A,[I:staff -1]CDC[I:staff +1]A, | %6
 D,G,=B,[I:staff -1]D[I:staff +1]B,G, C,G,[I:staff -1]CEC[I:staff +1]G, | %7
 C,G,[I:staff -1]CEC[I:staff +1]G, C,^F,[I:staff -1]CEC[I:staff +1]F, |[M:3/4] =B,,=F,G,=B,G,F, || %9
[M:6/4]"^dim." E,G,[I:staff -1]CEC[I:staff +1]G, E,G,[I:staff -1]CEC[I:staff +1]G, | %10
 E,B,[I:staff -1]EGE[I:staff +1]B, G,B,[I:staff -1]EGE[I:staff +1]G, | %11
 E,A,[I:staff -1]EAE[I:staff +1]A, [E,,E,]2 [_D,,_D,]2 [C,,C,]2 | %12
 [_D,,_D,]4 [=D,,=D,]2 [E,,E,]4 [=E,,=E,]2 | F,4 A,2 G,6 | C,2 z2 z2 [A,,,A,,]6 | %15
 [=A,,,=A,,]6 [B,,,B,,]6 | [E,,E,]B,EGEB, G,B,EGEB, | %17
 G,B,[I:staff -1]EGE[I:staff +1]B, G,B,[I:staff -1]EGE[I:staff +1]B, | %18
 G,B,[I:staff -1]EGE[I:staff +1]B, G,B,[I:staff -1]EGE[I:staff +1]B, |] %19
 G,2 [E,,E,]2 [E,,E,]2 [E,,E,]6 |] %20
V:4
 [E,,E,]2 z2 z2 z4 z2 | [E,,E,]2 z2 z2 z4 z2 | [E,,E,]2 z2 z2 z4 z2 |] %3
 x6 F,B,[I:staff -1]DFD[I:staff +1]B, | [C,,C,]12 | [F,,,F,,]12 | [F,,,F,,]6 [E,,,E,,]6 | %7
 [A,,,A,,]12 |[M:3/4] [G,,,G,,]6 ||[M:6/4] z2 [C,,C,]2 [D,,D,]2 [E,,E,]2 [D,,D,]2 [C,,C,]2 | %10
 [B,,,B,,]6 [_D,,_D,]6 | [C,,C,]6 x6 | x12 | F,,6 G,,6 | x12 | x12 | x12 | [E,,E,]2 z2 z2 z4 z2 | %18
 [E,,E,]2 z2 z2 z4 z2 |] x12 |] %20

